packages/tokens/icons/cloudSync/size32Px.svg

<svg viewBox="0 0 32 32" fill="none" xmlns="http://www.w3.org/2000/svg" width="1em" height="1em"><path d="M24.6667 20C27.375 20 29 17.6707 29 15.2C29 12.7293 27.1041 10.6946 24.6666 10.4293C24.6745 6.93025 21.7268 4 18.1667 4C14.9457 4 12.2719 6.3068 11.7564 9.33405C9.182 9.29283 6.86993 11.1143 6.358 13.6017C4.54733 13.5435 3 15.0146 3 16.8C3 18.5673 4.45507 20 6.25 20H7.33333" stroke="currentColor" stroke-linecap="round" stroke-linejoin="round"/><path d="M15.8636 14.9091C12.3491 14.9091 9.5 17.7582 9.5 21.2727C9.5 23.8822 11.0707 26.1248 13.3182 27.1068" stroke="currentColor" stroke-linecap="round"/><path d="M14.5909 13L16.5 14.9091L14.5909 16.8182" stroke="currentColor" stroke-linecap="round" stroke-linejoin="round"/><path d="M16.1364 27.1979C19.6509 27.1979 22.5 24.3488 22.5 20.8342C22.5 18.2247 20.9293 15.9821 18.6818 15.0001" stroke="currentColor" stroke-linecap="round"/><path d="M17.4091 29.1069L15.5 27.1978L17.4091 25.2888" stroke="currentColor" stroke-linecap="round" stroke-linejoin="round"/></svg>

<svg xmlns="http://www.w3.org/2000/svg" fill="none" viewBox="0 0 32 32" width="1em" height="1em"><path stroke="currentColor" stroke-linecap="round" stroke-linejoin="round" d="M24.667 20C27.375 20 29 17.67 29 15.2c0-2.47-1.896-4.505-4.333-4.77.007-3.5-2.94-6.43-6.5-6.43-3.221 0-5.895 2.307-6.41 5.334-2.575-.041-4.887 1.78-5.399 4.268C4.548 13.543 3 15.015 3 16.8 3 18.567 4.455 20 6.25 20h1.083"/><path stroke="currentColor" stroke-linecap="round" d="M15.864 14.91a6.364 6.364 0 0 0-2.546 12.197"/><path stroke="currentColor" stroke-linecap="round" stroke-linejoin="round" d="m14.59 13 1.91 1.91-1.91 1.908"/><path stroke="currentColor" stroke-linecap="round" d="M16.136 27.198A6.364 6.364 0 0 0 18.682 15"/><path stroke="currentColor" stroke-linecap="round" stroke-linejoin="round" d="m17.41 29.107-1.91-1.91 1.91-1.908"/></svg>
